desc:Butterworth LP

import cookdsp.jsfx-inc

slider1:200<100,10000>Cutoff Frequency In Hz

@init
// Initializes the filters
filt1.butlp(slider1);
filt2.butlp(slider1);

@slider
filt1.butlp_set_freq(slider1);
filt2.butlp_set_freq(slider1);

@sample
// Filters the input signal
spl0 = filt1.butlp_do(spl0);
spl1 = filt2.butlp_do(spl1);
