desc:Butterworth HP

import cookdsp.jsfx-inc

slider1:200<100,10000>Cutoff Frequency In Hz

@init
// Initializes the filter
filt1.buthp(slider1);
filt2.buthp(slider1);

@slider
filt1.buthp_set_freq(slider1);
filt2.buthp_set_freq(slider1);

@sample
// Filters the input signal
spl0 = filt1.buthp_do(spl0);
spl1 = filt2.buthp_do(spl1);
